assets/Studio microphone/Flat/studio_microphone_flat.svg

<svg width="32" height="32" viewBox="0 0 32 32" fill="none" xmlns="http://www.w3.org/2000/svg">
<path d="M18.2088 25.01H13.8188V26.25H18.2088V25.01Z" fill="#998EA4"/>
<path d="M17.2888 2H14.7288C12.1788 2 10.0988 4.07 10.0988 6.63V17.37C10.0988 19.93 12.1688 22 14.7288 22H17.2888C19.8488 22 21.9188 19.93 21.9188 17.37V6.63C21.9188 4.07 19.8388 2 17.2888 2ZM23.9188 12.88C24.4711 12.88 24.9188 13.3277 24.9188 13.88V18.17C24.9188 21.9419 21.8617 24.9994 18.09 25H18.0888L13.8311 25.01L13.8288 25.01C10.0654 25.01 7.00879 21.9512 7.00879 18.18V13.89C7.00879 13.3377 7.4565 12.89 8.00879 12.89C8.56107 12.89 9.00879 13.3377 9.00879 13.89V18.18C9.00879 20.8485 11.1716 23.0094 13.8277 23.01H13.8288L18.0864 23L18.0888 23C20.7565 23 22.9188 20.8377 22.9188 18.17V13.88C22.9188 13.3277 23.3665 12.88 23.9188 12.88ZM11.2887 26H20.7287C21.6587 26 22.5087 26.51 22.9387 27.32L23.9287 29.14C24.1387 29.53 23.8587 30 23.4187 30H8.58873C8.14873 30 7.86873 29.53 8.07873 29.14L9.06873 27.32C9.50873 26.51 10.3687 26 11.2887 26Z" fill="#B4ACBC"/>
<path d="M10.0986 8.12H14.8586C15.2786 8.12 15.6086 8.46 15.6086 8.87C15.6086 9.28 15.2786 9.62 14.8586 9.62H10.0986V8.12ZM17.1586 8.12H21.9186V9.62H17.1586C16.7386 9.62 16.4086 9.28 16.4086 8.87C16.4086 8.46 16.7386 8.12 17.1586 8.12ZM10.0986 11.3101H14.8586C15.2786 11.3101 15.6086 11.6401 15.6086 12.0601C15.6086 12.4701 15.2786 12.8101 14.8586 12.8101H10.0986V11.3101ZM10.0986 14.49H14.8586C15.2786 14.49 15.6086 14.83 15.6086 15.24C15.6086 15.65 15.2786 15.99 14.8586 15.99H10.0986V14.49ZM21.9186 11.3101H17.1586C16.7386 11.3101 16.4086 11.6401 16.4086 12.0601C16.4086 12.4701 16.7386 12.8101 17.1586 12.8101H21.9186V11.3101ZM17.1586 14.49H21.9186V15.99H17.1586C16.7386 15.99 16.4086 15.65 16.4086 15.24C16.4086 14.83 16.7386 14.49 17.1586 14.49Z" fill="#212121"/>
</svg>

<svg xmlns="http://www.w3.org/2000/svg" width="32" height="32" fill="none"><path fill="#998EA4" d="M18.209 25.01h-4.39v1.24h4.39v-1.24Z"/><path fill="#B4ACBC" d="M17.289 2h-2.56c-2.55 0-4.63 2.07-4.63 4.63v10.74c0 2.56 2.07 4.63 4.63 4.63h2.56c2.56 0 4.63-2.07 4.63-4.63V6.63c0-2.56-2.08-4.63-4.63-4.63Zm6.63 10.88a1 1 0 0 1 1 1v4.29A6.83 6.83 0 0 1 18.09 25h-.001l-4.258.01h-.002c-3.764 0-6.82-3.059-6.82-6.83v-4.29a1 1 0 1 1 2 0v4.29a4.828 4.828 0 0 0 4.819 4.83l4.258-.01h.003a4.83 4.83 0 0 0 4.83-4.83v-4.29a1 1 0 0 1 1-1ZM11.289 26h9.44c.93 0 1.78.51 2.21 1.32l.99 1.82c.21.39-.07.86-.51.86H8.589c-.44 0-.72-.47-.51-.86l.99-1.82c.44-.81 1.3-1.32 2.22-1.32Z"/><path fill="#212121" d="M10.099 8.12h4.76a.749.749 0 1 1 0 1.5h-4.76v-1.5Zm7.06 0h4.76v1.5h-4.76a.749.749 0 1 1 0-1.5Zm-7.06 3.19h4.76c.42 0 .75.33.75.75 0 .41-.33.75-.75.75h-4.76v-1.5Zm0 3.18h4.76a.749.749 0 1 1 0 1.5h-4.76v-1.5Zm11.82-3.18h-4.76c-.42 0-.75.33-.75.75 0 .41.33.75.75.75h4.76v-1.5Zm-4.76 3.18h4.76v1.5h-4.76a.749.749 0 1 1 0-1.5Z"/></svg>
